lut/cinematic.cube
# Cinematic subtle LUT
LUT_3D_SIZE 17
0.00000 0.00940 0.03290
0.03986 0.01015 0.03302
0.09563 0.01093 0.03315
0.15321 0.01173 0.03328
0.21260 0.01256 0.03342
0.27380 0.01341 0.03356
0.33680 0.01429 0.03370
0.40162 0.01519 0.03385
0.46824 0.01612 0.03400
0.53487 0.01705 0.03415
0.59968 0.01795 0.03430
0.66269 0.01883 0.03444
0.72388 0.01968 0.03458
0.78327 0.02051 0.03472
0.84085 0.02131 0.03485
0.89662 0.02209 0.03498
0.95059 0.02284 0.03510
0.00000 0.06346 0.03314
0.04257 0.06421 0.03326
0.09834 0.06499 0.03339
0.15592 0.06579 0.03352
0.21531 0.06662 0.03366
0.27651 0.06747 0.03380
0.33952 0.06835 0.03394
0.40433 0.06925 0.03409
0.47095 0.07018 0.03424
0.53758 0.07111 0.03439
0.60239 0.07201 0.03454
0.66540 0.07289 0.03469
0.72660 0.07374 0.03483
0.78598 0.07457 0.03496
0.84356 0.07537 0.03509
0.89933 0.07615 0.03522
0.95330 0.07690 0.03534
0.00000 0.11933 0.03339
0.04537 0.12008 0.03351
0.10115 0.12086 0.03364
0.15873 0.12166 0.03377
0.21811 0.12249 0.03391
0.27931 0.12334 0.03405
0.34232 0.12422 0.03419
0.40713 0.12512 0.03434
0.47376 0.12605 0.03449
0.54038 0.12698 0.03464
0.60519 0.12788 0.03479
0.66820 0.12876 0.03494
0.72940 0.12961 0.03507
0.78879 0.13044 0.03521
0.84637 0.13124 0.03534
0.90214 0.13202 0.03547
0.95610 0.13277 0.03559
0.00000 0.17701 0.03365
0.04827 0.17776 0.03377
0.10404 0.17854 0.03390
0.16162 0.17934 0.03403
0.22101 0.18017 0.03417
0.28220 0.18102 0.03431
0.34521 0.18190 0.03445
0.41002 0.18280 0.03460
0.47665 0.18373 0.03475
0.54327 0.18466 0.03490
0.60809 0.18556 0.03505
0.67109 0.18644 0.03519
0.73229 0.18729 0.03533
0.79168 0.18812 0.03547
0.84926 0.18892 0.03560
0.90503 0.18970 0.03573
0.95899 0.19045 0.03585
0.00000 0.23650 0.03392
0.05125 0.23725 0.03404
0.10702 0.23803 0.03417
0.16460 0.23883 0.03430
0.22399 0.23966 0.03443
0.28519 0.24051 0.03457
0.34819 0.24139 0.03472
0.41301 0.24230 0.03486
0.47963 0.24322 0.03502
0.54626 0.24415 0.03517
0.61107 0.24506 0.03532
0.67408 0.24593 0.03546
0.73527 0.24679 0.03560
0.79466 0.24761 0.03573
0.85224 0.24842 0.03587
0.90801 0.24919 0.03599
0.96197 0.24995 0.03612
0.00036 0.29781 0.03419
0.05433 0.29856 0.03431
0.11010 0.29934 0.03444
0.16768 0.30014 0.03457
0.22706 0.30097 0.03471
0.28826 0.30182 0.03485
0.35127 0.30270 0.03499
0.41608 0.30360 0.03514
0.48271 0.30453 0.03529
0.54933 0.30546 0.03544
0.61414 0.30636 0.03559
0.67715 0.30724 0.03573
0.73835 0.30809 0.03587
0.79774 0.30892 0.03601
0.85532 0.30972 0.03614
0.91109 0.31050 0.03627
0.96505 0.31125 0.03639
0.00353 0.36092 0.03447
0.05749 0.36168 0.03459
0.11326 0.36245 0.03472
0.17084 0.36326 0.03485
0.23023 0.36408 0.03499
0.29143 0.36494 0.03513
0.35443 0.36581 0.03527
0.41925 0.36672 0.03542
0.48587 0.36765 0.03557
0.55249 0.36857 0.03572
0.61731 0.36948 0.03587
0.68032 0.37036 0.03602
0.74151 0.37121 0.03616
0.80090 0.37204 0.03629
0.85848 0.37284 0.03642
0.91425 0.37362 0.03655
0.96821 0.37437 0.03667
0.00678 0.42585 0.03476
0.06075 0.42661 0.03488
0.11652 0.42738 0.03501
0.17410 0.42819 0.03514
0.23349 0.42901 0.03528
0.29468 0.42987 0.03542
0.35769 0.43074 0.03556
0.42250 0.43165 0.03571
0.48913 0.43258 0.03586
0.55575 0.43350 0.03601
0.62057 0.43441 0.03616
0.68357 0.43529 0.03631
0.74477 0.43614 0.03645
0.80416 0.43697 0.03658
0.86174 0.43777 0.03671
0.91751 0.43855 0.03684
0.97162 0.43934 0.03684
0.01013 0.49260 0.03506
0.06409 0.49335 0.03518
0.11986 0.49412 0.03531
0.17744 0.49493 0.03544
0.23683 0.49575 0.03558
0.29803 0.49661 0.03572
0.36104 0.49749 0.03586
0.42585 0.49839 0.03601
0.49247 0.49932 0.03616
0.55910 0.50025 0.03631
0.62391 0.50115 0.03646
0.68692 0.50203 0.03660
0.74812 0.50288 0.03674
0.80750 0.50371 0.03688
0.86572 0.50470 0.03650
0.92279 0.50587 0.03559
0.97801 0.50700 0.03470
0.01348 0.55934 0.03536
0.06744 0.56009 0.03548
0.12321 0.56087 0.03561
0.18079 0.56167 0.03574
0.24018 0.56250 0.03588
0.30138 0.56335 0.03602
0.36438 0.56423 0.03616
0.42920 0.56513 0.03631
0.49582 0.56606 0.03646
0.56244 0.56699 0.03661
0.62726 0.56789 0.03676
0.69027 0.56877 0.03690
0.75242 0.56991 0.03627
0.81320 0.57115 0.03530
0.87212 0.57236 0.03436
0.92919 0.57352 0.03345
0.98423 0.57477 0.03299
0.01673 0.62427 0.03565
0.07070 0.62502 0.03577
0.12647 0.62580 0.03590
0.18405 0.62660 0.03603
0.24344 0.62743 0.03617
0.30463 0.62828 0.03631
0.36764 0.62916 0.03645
0.43245 0.63006 0.03660
0.49908 0.63099 0.03675
0.56570 0.63192 0.03690
0.63155 0.63313 0.03622
0.69602 0.63445 0.03519
0.75865 0.63573 0.03419
0.81942 0.63697 0.03322
0.87804 0.63838 0.03299
0.93472 0.63981 0.03298
0.98956 0.64119 0.03298
0.01990 0.68738 0.03593
0.07386 0.68814 0.03605
0.12963 0.68891 0.03618
0.18721 0.68972 0.03631
0.24660 0.69054 0.03645
0.30780 0.69140 0.03659
0.37080 0.69227 0.03673
0.43562 0.69318 0.03688
0.50309 0.69436 0.03635
0.57127 0.69576 0.03526
0.63760 0.69711 0.03420
0.70207 0.69843 0.03317
0.76434 0.69994 0.03299
0.82470 0.70146 0.03298
0.88322 0.70294 0.03298
0.93990 0.70436 0.03298
0.99474 0.70575 0.03297
0.02297 0.74869 0.03621
0.07694 0.74944 0.03633
0.13271 0.75022 0.03646
0.19029 0.75102 0.03659
0.24968 0.75185 0.03672
0.31087 0.75270 0.03686
0.37447 0.75376 0.03654
0.44079 0.75511 0.03547
0.50897 0.75651 0.03438
0.57714 0.75790 0.03329
0.64315 0.75947 0.03299
0.70718 0.76108 0.03298
0.76938 0.76265 0.03298
0.82973 0.76417 0.03298
0.88825 0.76564 0.03297
0.94493 0.76707 0.03297
0.99978 0.76845 0.03297
0.02596 0.80818 0.03647
0.07992 0.80893 0.03659
0.13569 0.80971 0.03672
0.19327 0.81051 0.03685
0.25307 0.81147 0.03666
0.31569 0.81275 0.03566
0.38017 0.81406 0.03463
0.44649 0.81542 0.03357
0.51445 0.81696 0.03299
0.58216 0.81867 0.03298
0.64803 0.82032 0.03298
0.71207 0.82194 0.03298
0.77426 0.82350 0.03297
0.83462 0.82502 0.03297
0.89314 0.82650 0.03297
0.94982 0.82792 0.03297
1.00000 0.82930 0.03296
0.02885 0.86586 0.03673
0.08281 0.86662 0.03685
0.13890 0.86749 0.03672
0.19782 0.86869 0.03578
0.25860 0.86994 0.03481
0.32122 0.87122 0.03381
0.38560 0.87260 0.03299
0.45148 0.87425 0.03298
0.51919 0.87596 0.03298
0.58690 0.87766 0.03298
0.65277 0.87932 0.03297
0.71680 0.88094 0.03297
0.77900 0.88250 0.03297
0.83936 0.88402 0.03297
0.89788 0.88549 0.03296
0.95456 0.88692 0.03296
1.00000 0.88830 0.03296
0.03197 0.92183 0.03673
0.08718 0.92296 0.03585
0.14426 0.92412 0.03493
0.20318 0.92533 0.03399
0.26395 0.92657 0.03302
0.32616 0.92813 0.03299
0.39019 0.92974 0.03298
0.45606 0.93140 0.03298
0.52378 0.93311 0.03298
0.59149 0.93481 0.03297
0.65736 0.93647 0.03297
0.72139 0.93808 0.03297
0.78359 0.93965 0.03296
0.84395 0.94117 0.03296
0.90246 0.94264 0.03296
0.95915 0.94407 0.03295
1.00000 0.94545 0.03295
0.03715 0.97663 0.03499
0.09236 0.97776 0.03411
0.14944 0.97892 0.03320
0.20804 0.98034 0.03299
0.26840 0.98186 0.03298
0.33060 0.98342 0.03298
0.39463 0.98503 0.03298
0.46050 0.98669 0.03297
0.52821 0.98840 0.03297
0.59593 0.99010 0.03297
0.66180 0.99176 0.03296
0.72583 0.99337 0.03296
0.78803 0.99494 0.03296
0.84838 0.99646 0.03295
0.90690 0.99793 0.03295
0.96358 0.99936 0.03295
1.00000 1.00000 0.03295
0.00000 0.00969 0.08553
0.04039 0.01044 0.08565
0.09616 0.01122 0.08578
0.15374 0.01202 0.08591
0.21313 0.01285 0.08605
0.27432 0.01370 0.08618
0.33733 0.01458 0.08633
0.40215 0.01548 0.08648
0.46877 0.01641 0.08663
0.53539 0.01734 0.08678
0.60021 0.01824 0.08693
0.66321 0.01912 0.08707
0.72441 0.01997 0.08721
0.78380 0.02080 0.08735
0.84138 0.02160 0.08748
0.89715 0.02238 0.08761
0.95111 0.02313 0.08773
0.00000 0.06374 0.08577
0.04310 0.06450 0.08589
0.09887 0.06527 0.08602
0.15645 0.06608 0.08615
0.21584 0.06690 0.08629
0.27704 0.06776 0.08643
0.34004 0.06863 0.08657
0.40486 0.06954 0.08672
0.47148 0.07047 0.08687
0.53810 0.07139 0.08702
0.60292 0.07230 0.08717
0.66592 0.07318 0.08731
0.72712 0.07403 0.08745
0.78651 0.07486 0.08759
0.84409 0.07566 0.08772
0.89986 0.07644 0.08785
0.95382 0.07719 0.08797
0.00000 0.11961 0.08602
0.04590 0.12037 0.08614
0.10167 0.12114 0.08627
0.15925 0.12195 0.08640
0.21864 0.12277 0.08654
0.27984 0.12363 0.08668
0.34284 0.12450 0.08682
0.40766 0.12541 0.08697
0.47428 0.12634 0.08712
0.54091 0.12726 0.08727
0.60572 0.12817 0.08742
0.66873 0.12904 0.08756
0.72992 0.12990 0.08770
0.78931 0.13073 0.08784
0.84689 0.13153 0.08797
0.90266 0.13230 0.08810
0.95662 0.13306 0.08822
0.00000 0.17730 0.08628
0.04879 0.17805 0.08640
0.10456 0.17882 0.08653
0.16214 0.17963 0.08666
0.22153 0.18045 0.08679
0.28273 0.18131 0.08693
0.34574 0.18219 0.08708
0.41055 0.18309 0.08723
0.47717 0.18402 0.08738
0.54380 0.18495 0.08753
0.60861 0.18585 0.08768
0.67162 0.18673 0.08782
0.73282 0.18758 0.08796
0.79220 0.18841 0.08810
0.84978 0.18921 0.08823
0.90556 0.18999 0.08836
0.95952 0.19074 0.08848
0.00000 0.23679 0.08654
0.05178 0.23754 0.08667
0.10755 0.23832 0.08679
0.16513 0.23912 0.08693
0.22452 0.23995 0.08706
0.28571 0.24080 0.08720
0.34872 0.24168 0.08734
0.41353 0.24258 0.08749
0.48016 0.24351 0.08764
0.54678 0.24444 0.08780
0.61160 0.24534 0.08794
0.67460 0.24622 0.08809
0.73580 0.24707 0.08823
0.79519 0.24790 0.08836
0.85277 0.24870 0.08849
0.90854 0.24948 0.08862
0.96250 0.25023 0.08874
0.00089 0.29809 0.08682
0.05485 0.29885 0.08694
0.11062 0.29962 0.08707
0.16820 0.30043 0.08720
0.22759 0.30125 0.08733
0.28879 0.30211 0.08747
0.35179 0.30298 0.08762
0.41661 0.30389 0.08777
0.48323 0.30482 0.08792
0.54986 0.30574 0.08807
0.61467 0.30665 0.08822
0.67768 0.30753 0.08836
0.73887 0.30838 0.08850
0.79826 0.30921 0.08864
0.85584 0.31001 0.08877
0.91161 0.31079 0.08890
0.96558 0.31154 0.08902
0.00405 0.36121 0.08710
0.05802 0.36196 0.08722
0.11379 0.36274 0.08735
0.17137 0.36354 0.08748
0.23076 0.36437 0.08762
0.29195 0.36522 0.08776
0.35496 0.36610 0.08790
0.41977 0.36700 0.08805
0.48640 0.36793 0.08820
0.55302 0.36886 0.08835
0.61784 0.36976 0.08850
0.68084 0.37064 0.08864
0.74204 0.37150 0.08878
0.80143 0.37232 0.08892
0.85901 0.37313 0.08905
0.91478 0.37390 0.08918
0.96874 0.37465 0.08930
0.00731 0.42614 0.08739
0.06127 0.42689 0.08751
0.11704 0.42767 0.08764
0.17462 0.42847 0.08777
0.23401 0.42930 0.08791
0.29521 0.43015 0.08805
0.35822 0.43103 0.08819
0.42303 0.43193 0.08834
0.48965 0.43286 0.08849
0.55628 0.43379 0.08864
0.62109 0.43469 0.08879
0.68410 0.43557 0.08893
0.74530 0.43642 0.08907
0.80468 0.43725 0.08921
0.86226 0.43805 0.08934
0.91803 0.43883 0.08947
0.97262 0.43977 0.08909
0.01066 0.49288 0.08769
0.06462 0.49363 0.08781
0.12039 0.49441 0.08794
0.17797 0.49521 0.08807
0.23736 0.49604 0.08821
0.29856 0.49689 0.08835
0.36156 0.49777 0.08849
0.42638 0.49868 0.08864
0.49300 0.49960 0.08879
0.55962 0.50053 0.08894
0.62444 0.50144 0.08909
0.68744 0.50231 0.08923
0.74864 0.50317 0.08937
0.80803 0.50399 0.08951
0.86673 0.50513 0.08874
0.92380 0.50630 0.08783
0.97902 0.50743 0.08695
0.01400 0.55962 0.08799
0.06797 0.56038 0.08811
0.12374 0.56115 0.08824
0.18132 0.56196 0.08837
0.24071 0.56278 0.08850
0.30190 0.56364 0.08864
0.36491 0.56451 0.08879
0.42972 0.56542 0.08894
0.49635 0.56635 0.08909
0.56297 0.56727 0.08924
0.62779 0.56818 0.08939
0.69081 0.56906 0.08952
0.75343 0.57034 0.08852
0.81420 0.57158 0.08755
0.87312 0.57279 0.08660
0.93019 0.57395 0.08569
0.98509 0.57530 0.08557
0.01726 0.62455 0.08828
0.07122 0.62531 0.08840
0.12699 0.62608 0.08853
0.18457 0.62688 0.08866
0.24396 0.62771 0.08879
0.30516 0.62857 0.08893
0.36817 0.62944 0.08908
0.43298 0.63035 0.08923
0.49960 0.63127 0.08938
0.56623 0.63220 0.08953
0.63255 0.63356 0.08847
0.69703 0.63488 0.08744
0.75965 0.63616 0.08644
0.82038 0.63743 0.08557
0.87890 0.63891 0.08557
0.93558 0.64033 0.08556
0.99042 0.64171 0.08556
0.02043 0.68767 0.08856
0.07439 0.68842 0.08868
0.13016 0.68920 0.08881
0.18774 0.69000 0.08894
0.24713 0.69083 0.08908
0.30832 0.69168 0.08922
0.37133 0.69256 0.08936
0.43615 0.69346 0.08951
0.50410 0.69479 0.08860
0.57228 0.69619 0.08750
0.63860 0.69754 0.08644
0.70301 0.69891 0.08557
0.76520 0.70047 0.08557
0.82556 0.70199 0.08556
0.88408 0.70346 0.08556
0.94076 0.70489 0.08556
0.99560 0.70627 0.08555
0.02350 0.74898 0.08883
0.07746 0.74973 0.08896
0.13323 0.75051 0.08908
0.19081 0.75131 0.08921
0.25020 0.75214 0.08935
0.31140 0.75299 0.08949
0.37547 0.75419 0.08878
0.44180 0.75554 0.08772
0.50997 0.75694 0.08663
0.57814 0.75834 0.08557
0.64401 0.76000 0.08557
0.70804 0.76161 0.08556
0.77024 0.76318 0.08556
0.83060 0.76470 0.08556
0.88912 0.76617 0.08555
0.94580 0.76760 0.08555
1.00000 0.76898 0.08555
0.02648 0.80847 0.08910
0.08045 0.80922 0.08922
0.13622 0.81000 0.08935
0.19380 0.81080 0.08948
0.25407 0.81190 0.08890
0.31670 0.81318 0.08790
0.38117 0.81450 0.08687
0.44750 0.81585 0.08581
0.51531 0.81749 0.08557
0.58302 0.81919 0.08556
0.64890 0.82085 0.08556
0.71293 0.82246 0.08556
0.77513 0.82403 0.08555
0.83548 0.82555 0.08555
0.89400 0.82702 0.08555
0.95068 0.82845 0.08555
1.00000 0.82983 0.08554
0.02938 0.86615 0.08936
0.08334 0.86690 0.08948
0.13991 0.86792 0.08897
0.19883 0.86912 0.08803
0.25960 0.87037 0.08705
0.32223 0.87165 0.08605
0.38647 0.87312 0.08557
0.45234 0.87478 0.08556
0.52005 0.87649 0.08556
0.58776 0.87819 0.08556
0.65363 0.87985 0.08555
0.71767 0.88146 0.08555
0.77986 0.88303 0.08555
0.84022 0.88455 0.08555
0.89874 0.88602 0.08554
0.95542 0.88745 0.08554
1.00000 0.88883 0.08554
0.03297 0.92226 0.08897
0.08819 0.92339 0.08809
0.14526 0.92455 0.08718
0.20418 0.92576 0.08623
0.26483 0.92709 0.08557
0.32702 0.92866 0.08557
0.39105 0.93027 0.08556
0.45693 0.93193 0.08556
0.52464 0.93363 0.08556
0.59235 0.93534 0.08555
0.65822 0.93700 0.08555
0.72225 0.93861 0.08555
0.78445 0.94017 0.08554
0.84481 0.94169 0.08554
0.90333 0.94317 0.08554
0.96001 0.94459 0.08553
1.00000 0.94597 0.08553
0.03815 0.97706 0.08724
0.09337 0.97819 0.08636
0.15039 0.97939 0.08557
0.20891 0.98086 0.08557
0.26926 0.98238 0.08556
0.33146 0.98395 0.08556
0.39549 0.98556 0.08556
0.46137 0.98722 0.08555
0.52908 0.98892 0.08555
0.59679 0.99063 0.08555
0.66266 0.99229 0.08554
0.72669 0.99390 0.08554
0.78889 0.99547 0.08554
0.84925 0.99699 0.08553
0.90777 0.99846 0.08553
0.96445 0.99989 0.08553
1.00000 1.00000 0.08553
0.00000 0.00998 0.13992
0.04093 0.01073 0.14004
0.09670 0.01151 0.14017
0.15428 0.01231 0.14030
0.21367 0.01314 0.14044
0.27487 0.01399 0.14058
0.33787 0.01487 0.14072
0.40269 0.01578 0.14087
0.46931 0.01670 0.14102
0.53594 0.01763 0.14117
0.60075 0.01854 0.14132
0.66376 0.01941 0.14146
0.72495 0.02027 0.14160
0.78434 0.02109 0.14174
0.84192 0.02190 0.14187
0.89769 0.02267 0.14200
0.95166 0.02343 0.14212
0.00000 0.06404 0.14016
0.04364 0.06479 0.14029
0.09941 0.06557 0.14041
0.15699 0.06637 0.14054
0.21638 0.06720 0.14068
0.27758 0.06805 0.14082
0.34059 0.06893 0.14096
0.40540 0.06983 0.14111
0.47202 0.07076 0.14126
0.53865 0.07169 0.14141
0.60346 0.07259 0.14156
0.66647 0.07347 0.14171
0.72767 0.07432 0.14185
0.78705 0.07515 0.14198
0.84463 0.07595 0.14211
0.90040 0.07673 0.14224
0.95437 0.07748 0.14236
0.00000 0.11991 0.14041
0.04645 0.12066 0.14053
0.10222 0.12144 0.14066
0.15980 0.12224 0.14079
0.21918 0.12307 0.14093
0.28038 0.12392 0.14107
0.34339 0.12480 0.14121
0.40820 0.12570 0.14136
0.47483 0.12663 0.14151
0.54145 0.12756 0.14166
0.60626 0.12846 0.14181
0.66927 0.12934 0.14196
0.73047 0.13019 0.14210
0.78986 0.13102 0.14223
0.84744 0.13182 0.14236
0.90321 0.13260 0.14249
0.95717 0.13335 0.14261
0.00000 0.17759 0.14067
0.04934 0.17834 0.14079
0.10511 0.17912 0.14092
0.16269 0.17992 0.14105
0.22208 0.18075 0.14119
0.28327 0.18160 0.14133
0.34628 0.18248 0.14147
0.41109 0.18338 0.14162
0.47772 0.18431 0.14177
0.54434 0.18524 0.14192
0.60916 0.18614 0.14207
0.67216 0.18702 0.14221
0.73336 0.18788 0.14235
0.79275 0.18870 0.14249
0.85033 0.18951 0.14262
0.90610 0.19028 0.14275
0.96006 0.19103 0.14287
0.00000 0.23709 0.14094
0.05232 0.23784 0.14106
0.10809 0.23861 0.14119
0.16567 0.23942 0.14132
0.22506 0.24024 0.14145
0.28626 0.24110 0.14159
0.34926 0.24197 0.14174
0.41408 0.24288 0.14188
0.48070 0.24381 0.14204
0.54733 0.24473 0.14219
0.61214 0.24564 0.14234
0.67515 0.24652 0.14248
0.73634 0.24737 0.14262
0.79573 0.24820 0.14275
0.85331 0.24900 0.14289
0.90908 0.24978 0.14301
0.96304 0.25053 0.14314
0.00143 0.29839 0.14121
0.05540 0.29914 0.14133
0.11117 0.29992 0.14146
0.16875 0.30072 0.14159
0.22813 0.30155 0.14173
0.28933 0.30240 0.14187
0.35234 0.30328 0.14201
0.41715 0.30418 0.14216
0.48378 0.30511 0.14231
0.55040 0.30604 0.14246
0.61521 0.30694 0.14261
0.67822 0.30782 0.14275
0.73942 0.30867 0.14289
0.79881 0.30950 0.14303
0.85639 0.31030 0.14316
0.91216 0.31108 0.14329
0.96612 0.31183 0.14341
0.00460 0.36151 0.14149
0.05856 0.36226 0.14162
0.11433 0.36304 0.14174
0.17191 0.36384 0.14187
0.23130 0.36467 0.14201
0.29250 0.36552 0.14215
0.35550 0.36640 0.14229
0.42032 0.36730 0.14244
0.48694 0.36823 0.14259
0.55357 0.36916 0.14274
0.61838 0.37006 0.14289
0.68139 0.37094 0.14304
0.74258 0.37179 0.14318
0.80197 0.37262 0.14331
0.85955 0.37342 0.14344
0.91532 0.37420 0.14357
0.96928 0.37495 0.14369
0.00786 0.42644 0.14178
0.06182 0.42719 0.14191
0.11759 0.42797 0.14203
0.17517 0.42877 0.14216
0.23456 0.42960 0.14230
0.29575 0.43045 0.14244
0.35876 0.43133 0.14258
0.42357 0.43223 0.14273
0.49020 0.43316 0.14288
0.55682 0.43409 0.14303
0.62164 0.43499 0.14318
0.68464 0.43587 0.14333
0.74584 0.43672 0.14347
0.80523 0.43755 0.14360
0.86281 0.43835 0.14373
0.91858 0.43913 0.14386
0.97366 0.44022 0.14308
0.01120 0.49318 0.14208
0.06516 0.49393 0.14220
0.12093 0.49471 0.14233
0.17851 0.49551 0.14246
0.23790 0.49634 0.14260
0.29910 0.49719 0.14274
0.36211 0.49807 0.14288
0.42692 0.49897 0.14303
0.49354 0.49990 0.14318
0.56017 0.50083 0.14333
0.62498 0.50173 0.14348
0.68799 0.50261 0.14362
0.74919 0.50346 0.14376
0.80885 0.50437 0.14368
0.86777 0.50558 0.14274
0.92484 0.50674 0.14183
0.98006 0.50787 0.14094
0.01455 0.55992 0.14238
0.06851 0.56067 0.14250
0.12428 0.56145 0.14263
0.18186 0.56225 0.14276
0.24125 0.56308 0.14290
0.30245 0.56393 0.14304
0.36545 0.56481 0.14318
0.43027 0.56571 0.14333
0.49689 0.56664 0.14348
0.56352 0.56757 0.14363
0.62833 0.56847 0.14378
0.69185 0.56950 0.14352
0.75447 0.57078 0.14251
0.81524 0.57203 0.14154
0.87416 0.57323 0.14060
0.93114 0.57446 0.13991
0.98598 0.57585 0.13991
0.01781 0.62485 0.14267
0.07177 0.62560 0.14279
0.12754 0.62638 0.14292
0.18512 0.62718 0.14305
0.24451 0.62801 0.14319
0.30570 0.62886 0.14333
0.36871 0.62974 0.14347
0.43352 0.63064 0.14362
0.50015 0.63157 0.14377
0.56727 0.63265 0.14352
0.63359 0.63400 0.14246
0.69807 0.63532 0.14143
0.76069 0.63660 0.14043
0.82127 0.63798 0.13991
0.87979 0.63945 0.13991
0.93647 0.64088 0.13991
0.99131 0.64226 0.13990
0.02097 0.68797 0.14295
0.07493 0.68872 0.14307
0.13070 0.68950 0.14320
0.18828 0.69030 0.14333
0.24767 0.69113 0.14347
0.30887 0.69198 0.14361
0.37187 0.69286 0.14375
0.43696 0.69384 0.14368
0.50514 0.69524 0.14259
0.57332 0.69663 0.14150
0.63964 0.69799 0.14044
0.70390 0.69945 0.13991
0.76610 0.70102 0.13991
0.82645 0.70254 0.13991
0.88497 0.70401 0.13990
0.94165 0.70544 0.13990
0.99650 0.70682 0.13990
0.02404 0.74927 0.14323
0.07801 0.75002 0.14335
0.13378 0.75080 0.14348
0.19136 0.75160 0.14361
0.25075 0.75243 0.14374
0.31204 0.75331 0.14381
0.37651 0.75463 0.14278
0.44284 0.75599 0.14171
0.51101 0.75738 0.14062
0.57903 0.75888 0.13991
0.64490 0.76054 0.13991
0.70893 0.76215 0.13991
0.77113 0.76372 0.13990
0.83149 0.76524 0.13990
0.89001 0.76671 0.13990
0.94669 0.76814 0.13989
1.00000 0.76952 0.13989
0.02703 0.80877 0.14349
0.08099 0.80952 0.14361
0.13676 0.81030 0.14374
0.19434 0.81110 0.14387
0.25511 0.81234 0.14290
0.31774 0.81362 0.14190
0.38221 0.81494 0.14087
0.44849 0.81633 0.13991
0.51620 0.81803 0.13991
0.58391 0.81974 0.13991
0.64979 0.82139 0.13990
0.71382 0.82301 0.13990
0.77602 0.82457 0.13990
0.83637 0.82609 0.13989
0.89489 0.82757 0.13989
0.95157 0.82899 0.13989
1.00000 0.83037 0.13989
0.02992 0.86645 0.14375
0.08388 0.86720 0.14387
0.14095 0.86836 0.14296
0.19987 0.86957 0.14202
0.26064 0.87081 0.14105
0.32327 0.87209 0.14005
0.38736 0.87367 0.13991
0.45323 0.87533 0.13991
0.52094 0.87703 0.13990
0.58865 0.87874 0.13990
0.65452 0.88039 0.13990
0.71856 0.88201 0.13989
0.78075 0.88357 0.13989
0.84111 0.88509 0.13989
0.89963 0.88657 0.13989
0.95631 0.88799 0.13988
1.00000 0.88937 0.13988
0.03401 0.92270 0.14297
0.08923 0.92383 0.14209
0.14630 0.92500 0.14117
0.20522 0.92620 0.14023
0.26572 0.92763 0.13991
0.32791 0.92920 0.13991
0.39195 0.93081 0.13990
0.45782 0.93247 0.13990
0.52553 0.93418 0.13990
0.59324 0.93588 0.13990
0.65911 0.93754 0.13989
0.72315 0.93915 0.13989
0.78534 0.94072 0.13989
0.84570 0.94224 0.13988
0.90422 0.94371 0.13988
0.96090 0.94514 0.13988
1.00000 0.94652 0.13987
0.03919 0.97750 0.14123
0.09441 0.97863 0.14035
0.15128 0.97993 0.13991
0.20980 0.98141 0.13991
0.27016 0.98293 0.13991
0.33235 0.98449 0.13990
0.39639 0.98610 0.13990
0.46226 0.98776 0.13990
0.52997 0.98947 0.13989
0.59768 0.99117 0.13989
0.66355 0.99283 0.13989
0.72758 0.99444 0.13988
0.78978 0.99601 0.13988
0.85014 0.99753 0.13988
0.90866 0.99900 0.13987
0.96534 1.00000 0.13987
1.00000 1.00000 0.13987
0.00000 0.01029 0.19608
0.04149 0.01104 0.19620
0.09727 0.01182 0.19633
0.15484 0.01262 0.19646
0.21423 0.01345 0.19659
0.27543 0.01430 0.19673
0.33844 0.01518 0.19688
0.40325 0.01608 0.19703
0.46988 0.01701 0.19718
0.53650 0.01794 0.19733
0.60131 0.01884 0.19748
0.66432 0.01972 0.19762
0.72552 0.02057 0.19776
0.78491 0.02140 0.19790
0.84248 0.02220 0.19803
0.89826 0.02298 0.19815
0.95222 0.02373 0.19828
0.00000 0.06435 0.19632
0.04421 0.06510 0.19644
0.09998 0.06588 0.19657
0.15756 0.06668 0.19670
0.21694 0.06751 0.19684
0.27814 0.06836 0.19698
0.34115 0.06924 0.19712
0.40596 0.07014 0.19727
0.47259 0.07107 0.19742
0.53921 0.07200 0.19757
0.60402 0.07290 0.19772
0.66703 0.07378 0.19786
0.72823 0.07463 0.19800
0.78762 0.07546 0.19814
0.84520 0.07626 0.19827
0.90097 0.07704 0.19840
