lut/cinematic.cube
# Cinematic subtle LUT
LUT_3D_SIZE 9
0.00000 0.00940 0.03290
0.09563 0.01093 0.03315
0.21260 0.01256 0.03342
0.33680 0.01429 0.03370
0.46824 0.01612 0.03400
0.59968 0.01795 0.03430
0.72388 0.01968 0.03458
0.84085 0.02131 0.03485
0.95059 0.02284 0.03510
0.00000 0.11933 0.03339
0.10115 0.12086 0.03364
0.21811 0.12249 0.03391
0.34232 0.12422 0.03419
0.47376 0.12605 0.03449
0.60519 0.12788 0.03479
0.72940 0.12961 0.03507
0.84637 0.13124 0.03534
0.95610 0.13277 0.03559
0.00000 0.23650 0.03392
0.10702 0.23803 0.03417
0.22399 0.23966 0.03443
0.34819 0.24139 0.03472
0.47963 0.24322 0.03502
0.61107 0.24506 0.03532
0.73527 0.24679 0.03560
0.85224 0.24842 0.03587
0.96197 0.24995 0.03612
0.00353 0.36092 0.03447
0.11326 0.36245 0.03472
0.23023 0.36408 0.03499
0.35443 0.36581 0.03527
0.48587 0.36765 0.03557
0.61731 0.36948 0.03587
0.74151 0.37121 0.03616
0.85848 0.37284 0.03642
0.96821 0.37437 0.03667
0.01013 0.49260 0.03506
0.11986 0.49412 0.03531
0.23683 0.49575 0.03558
0.36104 0.49749 0.03586
0.49247 0.49932 0.03616
0.62391 0.50115 0.03646
0.74812 0.50288 0.03674
0.86572 0.50470 0.03650
0.97801 0.50700 0.03470
0.01673 0.62427 0.03565
0.12647 0.62580 0.03590
0.24344 0.62743 0.03617
0.36764 0.62916 0.03645
0.49908 0.63099 0.03675
0.63155 0.63313 0.03622
0.75865 0.63573 0.03419
0.87804 0.63838 0.03299
0.98956 0.64119 0.03298
0.02297 0.74869 0.03621
0.13271 0.75022 0.03646
0.24968 0.75185 0.03672
0.37447 0.75376 0.03654
0.50897 0.75651 0.03438
0.64315 0.75947 0.03299
0.76938 0.76265 0.03298
0.88825 0.76564 0.03297
0.99978 0.76845 0.03297
0.02885 0.86586 0.03673
0.13890 0.86749 0.03672
0.25860 0.86994 0.03481
0.38560 0.87260 0.03299
0.51919 0.87596 0.03298
0.65277 0.87932 0.03297
0.77900 0.88250 0.03297
0.89788 0.88549 0.03296
1.00000 0.88830 0.03296
0.03715 0.97663 0.03499
0.14944 0.97892 0.03320
0.26840 0.98186 0.03298
0.39463 0.98503 0.03298
0.52821 0.98840 0.03297
0.66180 0.99176 0.03296
0.78803 0.99494 0.03296
0.90690 0.99793 0.03295
1.00000 1.00000 0.03295
0.00000 0.00998 0.13992
0.09670 0.01151 0.14017
0.21367 0.01314 0.14044
0.33787 0.01487 0.14072
0.46931 0.01670 0.14102
0.60075 0.01854 0.14132
0.72495 0.02027 0.14160
0.84192 0.02190 0.14187
0.95166 0.02343 0.14212
0.00000 0.11991 0.14041
0.10222 0.12144 0.14066
0.21918 0.12307 0.14093
0.34339 0.12480 0.14121
0.47483 0.12663 0.14151
0.60626 0.12846 0.14181
0.73047 0.13019 0.14210
0.84744 0.13182 0.14236
0.95717 0.13335 0.14261
0.00000 0.23709 0.14094
0.10809 0.23861 0.14119
0.22506 0.24024 0.14145
0.34926 0.24197 0.14174
0.48070 0.24381 0.14204
0.61214 0.24564 0.14234
0.73634 0.24737 0.14262
0.85331 0.24900 0.14289
0.96304 0.25053 0.14314
0.00460 0.36151 0.14149
0.11433 0.36304 0.14174
0.23130 0.36467 0.14201
0.35550 0.36640 0.14229
0.48694 0.36823 0.14259
0.61838 0.37006 0.14289
0.74258 0.37179 0.14318
0.85955 0.37342 0.14344
0.96928 0.37495 0.14369
0.01120 0.49318 0.14208
0.12093 0.49471 0.14233
0.23790 0.49634 0.14260
0.36211 0.49807 0.14288
0.49354 0.49990 0.14318
0.62498 0.50173 0.14348
0.74919 0.50346 0.14376
0.86777 0.50558 0.14274
0.98006 0.50787 0.14094
0.01781 0.62485 0.14267
0.12754 0.62638 0.14292
0.24451 0.62801 0.14319
0.36871 0.62974 0.14347
0.50015 0.63157 0.14377
0.63359 0.63400 0.14246
0.76069 0.63660 0.14043
0.87979 0.63945 0.13991
0.99131 0.64226 0.13990
0.02404 0.74927 0.14323
0.13378 0.75080 0.14348
0.25075 0.75243 0.14374
0.37651 0.75463 0.14278
0.51101 0.75738 0.14062
0.64490 0.76054 0.13991
0.77113 0.76372 0.13990
0.89001 0.76671 0.13990
1.00000 0.76952 0.13989
0.02992 0.86645 0.14375
0.14095 0.86836 0.14296
0.26064 0.87081 0.14105
0.38736 0.87367 0.13991
0.52094 0.87703 0.13990
0.65452 0.88039 0.13990
0.78075 0.88357 0.13989
0.89963 0.88657 0.13989
1.00000 0.88937 0.13988
0.03919 0.97750 0.14123
0.15128 0.97993 0.13991
0.27016 0.98293 0.13991
0.39639 0.98610 0.13990
0.52997 0.98947 0.13989
0.66355 0.99283 0.13989
0.78978 0.99601 0.13988
0.90866 0.99900 0.13987
1.00000 1.00000 0.13987
0.00000 0.01060 0.25400
0.09784 0.01213 0.25425
0.21481 0.01376 0.25451
0.33902 0.01549 0.25480
0.47045 0.01733 0.25510
0.60189 0.01916 0.25540
0.72610 0.02089 0.25568
0.84306 0.02252 0.25595
0.95280 0.02405 0.25620
0.00000 0.12053 0.25449
0.10336 0.12206 0.25474
0.22033 0.12369 0.25501
0.34453 0.12542 0.25529
0.47597 0.12725 0.25559
0.60741 0.12908 0.25589
0.73161 0.13082 0.25617
0.84858 0.13245 0.25644
0.95831 0.13397 0.25669
0.00000 0.23771 0.25501
0.10923 0.23924 0.25526
0.22620 0.24087 0.25553
0.35040 0.24260 0.25581
0.48184 0.24443 0.25611
0.61328 0.24626 0.25641
0.73748 0.24799 0.25670
0.85445 0.24962 0.25696
0.96419 0.25115 0.25721
0.00574 0.36213 0.25557
0.11547 0.36366 0.25582
0.23244 0.36529 0.25609
0.35664 0.36702 0.25637
0.48808 0.36885 0.25667
0.61952 0.37068 0.25697
0.74372 0.37241 0.25725
0.86069 0.37404 0.25752
0.97043 0.37557 0.25777
0.01234 0.49380 0.25616
0.12208 0.49533 0.25641
0.23904 0.49696 0.25667
0.36325 0.49869 0.25696
0.49469 0.50052 0.25726
0.62612 0.50235 0.25756
0.75033 0.50408 0.25784
0.86995 0.50651 0.25599
0.98224 0.50881 0.25419
0.01895 0.62547 0.25675
0.12868 0.62700 0.25700
0.24565 0.62863 0.25726
0.36985 0.63036 0.25755
0.50129 0.63219 0.25785
0.63577 0.63494 0.25571
0.76278 0.63760 0.25389
0.88166 0.64059 0.25388
0.99318 0.64340 0.25388
0.02519 0.74989 0.25730
0.13492 0.75142 0.25755
0.25189 0.75305 0.25782
0.37869 0.75556 0.25602
0.51319 0.75832 0.25389
0.64677 0.76168 0.25388
0.77300 0.76486 0.25388
0.89188 0.76786 0.25387
1.00000 0.77066 0.25386
0.03106 0.86707 0.25783
0.14313 0.86930 0.25621
0.26282 0.87175 0.25430
0.38923 0.87481 0.25388
0.52281 0.87817 0.25388
0.65639 0.88153 0.25387
0.78262 0.88471 0.25386
0.90150 0.88771 0.25386
1.00000 0.89051 0.25385
0.04137 0.97844 0.25448
0.15315 0.98107 0.25388
0.27202 0.98407 0.25388
0.39825 0.98725 0.25387
0.53184 0.99061 0.25387
0.66542 0.99397 0.25386
0.79165 0.99715 0.25385
0.91053 1.00000 0.25385
1.00000 1.00000 0.25384
0.00000 0.01126 0.37513
0.09906 0.01279 0.37538
0.21602 0.01442 0.37565
0.34023 0.01615 0.37593
0.47167 0.01799 0.37623
0.60310 0.01982 0.37653
0.72731 0.02155 0.37681
0.84428 0.02318 0.37708
0.95401 0.02471 0.37733
0.00000 0.12119 0.37562
0.10457 0.12272 0.37587
0.22154 0.12435 0.37614
0.34574 0.12608 0.37642
0.47718 0.12791 0.37672
0.60862 0.12974 0.37702
0.73282 0.13148 0.37731
0.84979 0.13311 0.37757
0.95952 0.13463 0.37782
0.00071 0.23837 0.37615
0.11045 0.23990 0.37640
0.22741 0.24153 0.37666
0.35162 0.24326 0.37695
0.48306 0.24509 0.37725
0.61449 0.24692 0.37755
0.73870 0.24865 0.37783
0.85566 0.25028 0.37810
0.96540 0.25181 0.37835
0.00695 0.36279 0.37670
0.11668 0.36432 0.37695
0.23365 0.36595 0.37722
0.35786 0.36768 0.37750
0.48929 0.36951 0.37780
0.62073 0.37134 0.37810
0.74494 0.37307 0.37839
0.86190 0.37470 0.37865
0.97194 0.37632 0.37866
0.01355 0.49446 0.37729
0.12329 0.49599 0.37754
0.24026 0.49762 0.37781
0.36446 0.49935 0.37809
0.49590 0.50118 0.37839
0.62734 0.50301 0.37869
0.75257 0.50505 0.37815
0.87226 0.50750 0.37624
0.98435 0.50993 0.37491
0.02016 0.62613 0.37788
0.12989 0.62766 0.37813
0.24686 0.62929 0.37840
0.37106 0.63102 0.37868
0.50359 0.63318 0.37811
0.63809 0.63593 0.37596
0.76477 0.63881 0.37491
0.88364 0.64180 0.37490
0.99517 0.64461 0.37490
0.02640 0.75055 0.37844
0.13613 0.75208 0.37869
0.25391 0.75396 0.37830
0.38101 0.75656 0.37627
0.51517 0.75953 0.37491
0.64875 0.76290 0.37490
0.77498 0.76607 0.37490
0.89386 0.76907 0.37489
1.00000 0.77187 0.37489
0.03315 0.86799 0.37826
0.14544 0.87029 0.37646
0.26498 0.87284 0.37491
0.39121 0.87602 0.37491
0.52479 0.87938 0.37490
0.65838 0.88275 0.37489
0.78461 0.88593 0.37489
0.90348 0.88892 0.37488
1.00000 0.89173 0.37488
0.04361 0.97948 0.37491
0.15513 0.98229 0.37491
0.27401 0.98528 0.37490
0.40024 0.98846 0.37490
0.53382 0.99182 0.37489
0.66740 0.99518 0.37488
0.79363 0.99836 0.37488
0.91251 1.00000 0.37487
1.00000 1.00000 0.37486
0.00000 0.01196 0.50332
0.10034 0.01349 0.50357
0.21731 0.01512 0.50384
0.34151 0.01685 0.50412
0.47295 0.01868 0.50442
0.60439 0.02052 0.50472
0.72859 0.02225 0.50500
0.84556 0.02388 0.50527
0.95529 0.02541 0.50552
0.00000 0.12189 0.50381
0.10585 0.12342 0.50406
0.22282 0.12505 0.50433
0.34702 0.12678 0.50461
0.47846 0.12861 0.50491
0.60990 0.13044 0.50521
0.73410 0.13217 0.50549
0.85107 0.13380 0.50576
0.96080 0.13533 0.50601
0.00199 0.23906 0.50433
0.11173 0.24059 0.50459
0.22870 0.24222 0.50485
0.35290 0.24395 0.50514
0.48434 0.24579 0.50544
0.61578 0.24762 0.50573
0.73998 0.24935 0.50602
0.85695 0.25098 0.50629
0.96668 0.25251 0.50654
0.00823 0.36349 0.50489
0.11797 0.36502 0.50514
0.23494 0.36665 0.50541
0.35914 0.36838 0.50569
0.49058 0.37021 0.50599
0.62202 0.37204 0.50629
0.74622 0.37377 0.50657
0.86319 0.37540 0.50684
0.97439 0.37737 0.50592
0.01484 0.49516 0.50548
0.12457 0.49669 0.50573
0.24154 0.49832 0.50600
0.36574 0.50005 0.50628
0.49718 0.50188 0.50658
0.62862 0.50371 0.50688
0.75502 0.50610 0.50540
0.87471 0.50855 0.50349
0.98645 0.51121 0.50298
0.02144 0.62683 0.50607
0.13117 0.62836 0.50632
0.24814 0.62999 0.50659
0.37234 0.63172 0.50687
0.50604 0.63423 0.50537
0.64054 0.63698 0.50321
0.76687 0.64009 0.50298
0.88574 0.64308 0.50298
0.99727 0.64589 0.50297
0.02768 0.75125 0.50662
0.13741 0.75278 0.50687
0.25636 0.75501 0.50556
0.38346 0.75760 0.50353
0.51727 0.76081 0.50298
0.65085 0.76418 0.50298
0.77708 0.76736 0.50297
0.89596 0.77035 0.50296
1.00000 0.77316 0.50296
0.03560 0.86904 0.50551
0.14789 0.87134 0.50371
0.26708 0.87412 0.50298
0.39331 0.87730 0.50298
0.52689 0.88067 0.50297
0.66048 0.88403 0.50297
0.78671 0.88721 0.50296
0.90558 0.89020 0.50295
1.00000 0.89301 0.50295
0.04571 0.98076 0.50298
0.15723 0.98357 0.50298
0.27611 0.98656 0.50297
0.40234 0.98974 0.50297
0.53592 0.99310 0.50296
0.66950 0.99647 0.50295
0.79573 0.99965 0.50295
0.91461 1.00000 0.50294
1.00000 1.00000 0.50294
0.00000 0.01266 0.63151
0.10162 0.01419 0.63176
0.21859 0.01582 0.63203
0.34279 0.01755 0.63231
0.47423 0.01938 0.63261
0.60567 0.02121 0.63291
0.72987 0.02294 0.63319
0.84684 0.02457 0.63346
0.95657 0.02610 0.63371
0.00000 0.12259 0.63200
0.10713 0.12412 0.63225
0.22410 0.12575 0.63252
0.34831 0.12748 0.63280
0.47974 0.12931 0.63310
0.61118 0.13114 0.63340
0.73539 0.13287 0.63368
0.85235 0.13450 0.63395
0.96209 0.13603 0.63420
0.00328 0.23976 0.63252
0.11301 0.24129 0.63277
0.22998 0.24292 0.63304
0.35418 0.24465 0.63332
0.48562 0.24648 0.63362
0.61706 0.24832 0.63392
0.74126 0.25005 0.63421
0.85823 0.25168 0.63447
0.96796 0.25321 0.63472
0.00952 0.36419 0.63308
0.11925 0.36572 0.63333
0.23622 0.36735 0.63360
0.36042 0.36908 0.63388
0.49186 0.37091 0.63418
0.62330 0.37274 0.63448
0.74750 0.37447 0.63476
0.86455 0.37612 0.63497
0.97684 0.37842 0.63317
0.01612 0.49586 0.63367
0.12585 0.49739 0.63392
0.24282 0.49902 0.63419
0.36702 0.50075 0.63447
0.49846 0.50258 0.63477
0.63037 0.50455 0.63469
0.75747 0.50715 0.63266
0.87703 0.50969 0.63106
0.98855 0.51250 0.63106
0.02272 0.62753 0.63426
0.13246 0.62906 0.63451
0.24942 0.63069 0.63477
0.37399 0.63253 0.63477
0.50849 0.63528 0.63262
0.64274 0.63820 0.63106
0.76897 0.64137 0.63106
0.88784 0.64437 0.63105
0.99937 0.64718 0.63104
0.02896 0.75195 0.63481
0.13912 0.75361 0.63473
0.25881 0.75605 0.63281
0.38579 0.75873 0.63106
0.51937 0.76210 0.63106
0.65295 0.76546 0.63105
0.77918 0.76864 0.63104
0.89806 0.77163 0.63104
1.00000 0.77444 0.63103
0.03805 0.87009 0.63277
0.15030 0.87241 0.63106
0.26918 0.87541 0.63106
0.39541 0.87858 0.63105
0.52899 0.88195 0.63104
0.66258 0.88531 0.63104
0.78881 0.88849 0.63103
0.90768 0.89148 0.63103
1.00000 0.89429 0.63102
0.04781 0.98204 0.63106
0.15933 0.98485 0.63105
0.27821 0.98784 0.63105
0.40444 0.99102 0.63104
0.53802 0.99439 0.63103
0.67160 0.99775 0.63103
0.79783 1.00000 0.63102
0.91671 1.00000 0.63102
1.00000 1.00000 0.63101
0.00000 0.01332 0.75264
0.10283 0.01485 0.75289
0.21980 0.01648 0.75316
0.34400 0.01821 0.75344
0.47544 0.02004 0.75374
0.60688 0.02187 0.75404
0.73108 0.02360 0.75433
0.84805 0.02523 0.75459
0.95779 0.02676 0.75484
0.00000 0.12325 0.75313
0.10835 0.12478 0.75338
0.22531 0.12641 0.75365
0.34952 0.12814 0.75393
0.48096 0.12997 0.75423
0.61239 0.13180 0.75453
0.73660 0.13353 0.75482
0.85357 0.13516 0.75508
0.96330 0.13669 0.75533
0.00449 0.24042 0.75366
0.11422 0.24195 0.75391
0.23119 0.24358 0.75417
0.35539 0.24531 0.75446
0.48683 0.24714 0.75476
0.61827 0.24898 0.75506
0.74247 0.25071 0.75534
0.85944 0.25234 0.75561
0.96917 0.25387 0.75586
0.01073 0.36485 0.75421
0.12046 0.36638 0.75446
0.23743 0.36800 0.75473
0.36163 0.36974 0.75501
0.49307 0.37157 0.75531
0.62451 0.37340 0.75561
0.74871 0.37513 0.75590
0.86686 0.37711 0.75522
0.97915 0.37941 0.75342
0.01733 0.49652 0.75480
0.12706 0.49805 0.75505
0.24403 0.49968 0.75532
0.36824 0.50141 0.75560
0.49967 0.50324 0.75590
0.63269 0.50554 0.75494
0.75979 0.50814 0.75291
0.87901 0.51090 0.75208
0.99054 0.51371 0.75208
0.02393 0.62819 0.75539
0.13367 0.62972 0.75564
0.25064 0.63135 0.75591
0.37630 0.63352 0.75502
0.51080 0.63627 0.75287
0.64472 0.63941 0.75208
0.77095 0.64259 0.75208
0.88983 0.64558 0.75207
1.00000 0.64839 0.75207
0.03017 0.75261 0.75595
0.14143 0.75460 0.75498
0.26113 0.75704 0.75306
0.38777 0.75995 0.75208
0.52136 0.76331 0.75208
0.65494 0.76667 0.75207
0.78117 0.76985 0.75207
0.90004 0.77284 0.75206
1.00000 0.77565 0.75205
0.04037 0.87108 0.75302
0.15229 0.87363 0.75209
0.27117 0.87662 0.75208
0.39740 0.87980 0.75207
0.53098 0.88316 0.75207
0.66456 0.88652 0.75206
0.79079 0.88970 0.75205
0.90967 0.89269 0.75205
1.00000 0.89550 0.75204
0.04979 0.98325 0.75208
0.16132 0.98606 0.75207
0.28019 0.98906 0.75207
0.40642 0.99223 0.75206
0.54001 0.99560 0.75206
0.67359 0.99896 0.75205
0.79982 1.00000 0.75204
0.91869 1.00000 0.75204
1.00000 1.00000 0.75203
0.00000 0.01394 0.86672
0.10397 0.01547 0.86697
0.22094 0.01710 0.86724
0.34515 0.01883 0.86752
0.47658 0.02066 0.86782
0.60802 0.02250 0.86812
0.73223 0.02423 0.86840
0.84919 0.02586 0.86867
0.95893 0.02739 0.86892
0.00000 0.12387 0.86721
0.10949 0.12540 0.86746
0.22645 0.12703 0.86773
0.35066 0.12876 0.86801
0.48210 0.13059 0.86831
0.61353 0.13242 0.86861
0.73774 0.13415 0.86889
0.85471 0.13578 0.86916
0.96444 0.13731 0.86941
0.00563 0.24104 0.86773
0.11536 0.24257 0.86798
0.23233 0.24420 0.86825
0.35653 0.24593 0.86853
0.48797 0.24777 0.86883
0.61941 0.24960 0.86913
0.74361 0.25133 0.86942
0.86058 0.25296 0.86968
0.97032 0.25449 0.86993
0.01187 0.36547 0.86829
0.12160 0.36700 0.86854
0.23857 0.36863 0.86881
0.36277 0.37036 0.86909
0.49421 0.37219 0.86939
0.62565 0.37402 0.86969
0.74985 0.37575 0.86997
0.86904 0.37805 0.86846
0.98133 0.38034 0.86667
0.01847 0.49714 0.86888
0.12821 0.49867 0.86913
0.24517 0.50030 0.86940
0.36938 0.50203 0.86968
0.50082 0.50386 0.86998
0.63487 0.50648 0.86819
0.76197 0.50908 0.86615
0.88088 0.51204 0.86606
0.99241 0.51485 0.86605
0.02508 0.62881 0.86947
0.13481 0.63034 0.86972
0.25178 0.63197 0.86998
0.37848 0.63445 0.86827
0.51298 0.63720 0.86612
0.64659 0.64055 0.86606
0.77282 0.64373 0.86605
0.89170 0.64672 0.86604
1.00000 0.64953 0.86604
0.03132 0.75323 0.87002
0.14361 0.75553 0.86822
0.26331 0.75798 0.86631
0.38964 0.76109 0.86606
0.52322 0.76445 0.86605
0.65681 0.76781 0.86604
0.78304 0.77099 0.86604
0.90191 0.77398 0.86603
1.00000 0.77679 0.86603
0.04255 0.87201 0.86626
0.15416 0.87477 0.86606
0.27303 0.87776 0.86605
0.39926 0.88094 0.86605
0.53285 0.88430 0.86604
0.66643 0.88766 0.86603
0.79266 0.89084 0.86603
0.91154 0.89384 0.86602
1.00000 0.89664 0.86602
0.05166 0.98440 0.86605
0.16319 0.98720 0.86605
0.28206 0.99020 0.86604
0.40829 0.99338 0.86604
0.54187 0.99674 0.86603
0.67546 1.00000 0.86602
0.80169 1.00000 0.86602
0.92056 1.00000 0.86601
1.00000 1.00000 0.86601
0.00000 0.01453 0.97374
0.10504 0.01605 0.97399
0.22201 0.01768 0.97426
0.34622 0.01942 0.97454
0.47765 0.02125 0.97484
0.60909 0.02308 0.97514
0.73330 0.02481 0.97542
0.85026 0.02644 0.97569
0.96000 0.02797 0.97594
0.00082 0.12445 0.97423
0.11056 0.12598 0.97448
0.22753 0.12761 0.97475
0.35173 0.12934 0.97503
0.48317 0.13117 0.97533
0.61461 0.13301 0.97563
0.73881 0.13474 0.97591
0.85578 0.13637 0.97618
0.96551 0.13790 0.97643
0.00670 0.24163 0.97475
0.11643 0.24316 0.97500
0.23340 0.24479 0.97527
0.35760 0.24652 0.97555
0.48904 0.24835 0.97585
0.62048 0.25018 0.97615
0.74468 0.25191 0.97644
0.86165 0.25354 0.97670
0.97146 0.25509 0.97690
0.01294 0.36605 0.97531
0.12267 0.36758 0.97556
0.23964 0.36921 0.97583
0.36384 0.37094 0.97611
0.49528 0.37277 0.97641
0.62672 0.37460 0.97671
0.75139 0.37648 0.97662
0.87109 0.37892 0.97470
0.98335 0.38124 0.97299
0.01954 0.49772 0.97590
0.12928 0.49925 0.97615
0.24624 0.50088 0.97642
0.37045 0.50261 0.97670
0.50241 0.50460 0.97658
0.63691 0.50735 0.97443
0.76376 0.51012 0.97299
0.88264 0.51311 0.97298
0.99416 0.51592 0.97297
0.02615 0.62939 0.97649
0.13588 0.63092 0.97674
0.25343 0.63273 0.97654
0.38053 0.63533 0.97451
0.51476 0.63826 0.97299
0.64834 0.64162 0.97298
0.77457 0.64480 0.97297
0.89345 0.64779 0.97297
1.00000 0.65060 0.97296
0.03337 0.75411 0.97626
0.14566 0.75641 0.97446
0.26516 0.75898 0.97299
0.39139 0.76216 0.97298
0.52498 0.76552 0.97297
0.65856 0.76888 0.97297
0.78479 0.77206 0.97296
0.90367 0.77506 0.97296
1.00000 0.77786 0.97295
0.04439 0.87303 0.97299
0.15591 0.87584 0.97298
0.27479 0.87883 0.97298
0.40102 0.88201 0.97297
0.53460 0.88537 0.97296
0.66818 0.88874 0.97296
0.79441 0.89191 0.97295
0.91329 0.89491 0.97294
1.00000 0.89771 0.97294
0.05342 0.98547 0.97298
0.16494 0.98827 0.97297
0.28382 0.99127 0.97296
0.41004 0.99445 0.97296
0.54363 0.99781 0.97295
0.67721 1.00000 0.97295
0.80344 1.00000 0.97294
0.92232 1.00000 0.97293
1.00000 1.00000 0.97293
