lut/cinematic.cube
# Cinematic subtle LUT
LUT_3D_SIZE 5
0.00000 0.00940 0.03290
0.21260 0.01256 0.03342
0.46824 0.01612 0.03400
0.72388 0.01968 0.03458
0.95059 0.02284 0.03510
0.00000 0.23650 0.03392
0.22399 0.23966 0.03443
0.47963 0.24322 0.03502
0.73527 0.24679 0.03560
0.96197 0.24995 0.03612
0.01013 0.49260 0.03506
0.23683 0.49575 0.03558
0.49247 0.49932 0.03616
0.74812 0.50288 0.03674
0.97801 0.50700 0.03470
0.02297 0.74869 0.03621
0.24968 0.75185 0.03672
0.50897 0.75651 0.03438
0.76938 0.76265 0.03298
0.99978 0.76845 0.03297
0.03715 0.97663 0.03499
0.26840 0.98186 0.03298
0.52821 0.98840 0.03297
0.78803 0.99494 0.03296
1.00000 1.00000 0.03295
0.00000 0.01060 0.25400
0.21481 0.01376 0.25451
0.47045 0.01733 0.25510
0.72610 0.02089 0.25568
0.95280 0.02405 0.25620
0.00000 0.23771 0.25501
0.22620 0.24087 0.25553
0.48184 0.24443 0.25611
0.73748 0.24799 0.25670
0.96419 0.25115 0.25721
0.01234 0.49380 0.25616
0.23904 0.49696 0.25667
0.49469 0.50052 0.25726
0.75033 0.50408 0.25784
0.98224 0.50881 0.25419
0.02519 0.74989 0.25730
0.25189 0.75305 0.25782
0.51319 0.75832 0.25389
0.77300 0.76486 0.25388
1.00000 0.77066 0.25386
0.04137 0.97844 0.25448
0.27202 0.98407 0.25388
0.53184 0.99061 0.25387
0.79165 0.99715 0.25385
1.00000 1.00000 0.25384
0.00000 0.01196 0.50332
0.21731 0.01512 0.50384
0.47295 0.01868 0.50442
0.72859 0.02225 0.50500
0.95529 0.02541 0.50552
0.00199 0.23906 0.50433
0.22870 0.24222 0.50485
0.48434 0.24579 0.50544
0.73998 0.24935 0.50602
0.96668 0.25251 0.50654
0.01484 0.49516 0.50548
0.24154 0.49832 0.50600
0.49718 0.50188 0.50658
0.75502 0.50610 0.50540
0.98645 0.51121 0.50298
0.02768 0.75125 0.50662
0.25636 0.75501 0.50556
0.51727 0.76081 0.50298
0.77708 0.76736 0.50297
1.00000 0.77316 0.50296
0.04571 0.98076 0.50298
0.27611 0.98656 0.50297
0.53592 0.99310 0.50296
0.79573 0.99965 0.50295
1.00000 1.00000 0.50294
0.00000 0.01332 0.75264
0.21980 0.01648 0.75316
0.47544 0.02004 0.75374
0.73108 0.02360 0.75433
0.95779 0.02676 0.75484
0.00449 0.24042 0.75366
0.23119 0.24358 0.75417
0.48683 0.24714 0.75476
0.74247 0.25071 0.75534
0.96917 0.25387 0.75586
0.01733 0.49652 0.75480
0.24403 0.49968 0.75532
0.49967 0.50324 0.75590
0.75979 0.50814 0.75291
0.99054 0.51371 0.75208
0.03017 0.75261 0.75595
0.26113 0.75704 0.75306
0.52136 0.76331 0.75208
0.78117 0.76985 0.75207
1.00000 0.77565 0.75205
0.04979 0.98325 0.75208
0.28019 0.98906 0.75207
0.54001 0.99560 0.75206
0.79982 1.00000 0.75204
1.00000 1.00000 0.75203
0.00000 0.01453 0.97374
0.22201 0.01768 0.97426
0.47765 0.02125 0.97484
0.73330 0.02481 0.97542
0.96000 0.02797 0.97594
0.00670 0.24163 0.97475
0.23340 0.24479 0.97527
0.48904 0.24835 0.97585
0.74468 0.25191 0.97644
0.97146 0.25509 0.97690
0.01954 0.49772 0.97590
0.24624 0.50088 0.97642
0.50241 0.50460 0.97658
0.76376 0.51012 0.97299
0.99416 0.51592 0.97297
0.03337 0.75411 0.97626
0.26516 0.75898 0.97299
0.52498 0.76552 0.97297
0.78479 0.77206 0.97296
1.00000 0.77786 0.97295
0.05342 0.98547 0.97298
0.28382 0.99127 0.97296
0.54363 0.99781 0.97295
0.80344 1.00000 0.97294
1.00000 1.00000 0.97293
